public/img/header-facebook.svg

<svg width="24" height="24" viewBox="0 0 24 24" fill="none" xmlns="http://www.w3.org/2000/svg">
<path d="M15.403 9.00004H13V7.00004C13 5.96804 13.084 5.31804 14.563 5.31804H15.431C15.983 5.31804 16.431 4.87004 16.431 4.31804V3.06404C16.431 2.54104 16.03 2.09404 15.508 2.05904C14.904 2.01804 14.299 1.99904 13.693 2.00004C10.98 2.00004 9 3.65704 9 6.69904V9.00004H7C6.448 9.00004 6 9.44804 6 10V12C6 12.552 6.448 13 7 13L9 12.999V21C9 21.552 9.448 22 10 22H12C12.552 22 13 21.552 13 21V12.997L15.174 12.996C15.682 12.996 16.109 12.615 16.167 12.11L16.396 10.114C16.465 9.52104 16.001 9.00004 15.403 9.00004Z" fill="white"/>
</svg>

<svg width="24" height="24" fill="none" xmlns="http://www.w3.org/2000/svg"><path d="M15.403 9H13V7c0-1.032.084-1.682 1.563-1.682h.868a1 1 0 001-1V3.064c0-.523-.401-.97-.923-1.005A26.154 26.154 0 0013.693 2C10.98 2 9 3.657 9 6.699V9H7a1 1 0 00-1 1v2a1 1 0 001 1l2-.001V21a1 1 0 001 1h2a1 1 0 001-1v-8.003l2.174-.001a1 1 0 00.993-.886l.229-1.996A1 1 0 0015.403 9z" fill="#fff"/></svg>
